set SUIT 18

proc S0 {

    fw B
    set C A + B
    set A B
    set B C
    lt 90

}

proc S1 {

    fw A
    set C A + B
    set A B
    set B C
    rt 90

}

proc FIBONACCI {

    set A 0
    set B 1

    repeat (SUIT/2) {
        color random(0, 1), random(0, 1), random(0, 1)
        call S0
        color random(0, 1), random(0, 1), random(0, 1)
        call S1
    }

}

up
pos -885, 495
down
rt 90
call FIBONACCI