set SIZE 100
set SIZE3 SIZE / 3
set SIZE5 SIZE / 5

proc BRANCH1 {
    rt 45 fw SIZE3 bw SIZE3
    lt 90 fw SIZE3 bw SIZE3
    rt 45 
}

proc BRANCH2 {
    rt 45 fw SIZE5 bw SIZE5
    lt 90 fw SIZE5 bw SIZE5
    rt 45 
}

proc PART {

    fw SIZE3
    call BRANCH1
    fw SIZE3
    call BRANCH2
    fw SIZE3 bw SIZE

}

proc SNOW {
    color cyan
    repeat 6 {
        call PART
        rt 60
    }
}

call SNOW